X:1
T:Title
%%score { ( 1 3 ) | ( 2 4 ) }
L:1/8
M:3/4
K:G
V:1 treble nm="Grand Piano"
V:3 treble 
V:2 treble 
V:4 treble 
V:1
 z2 z2[Q:1/4=92] D2 | DG B2 B2 | [GB][FA] [FA]2 [DGB]2 | [EGd]3 [EGc] [DGB][CEA] | %4
[M:2/4] [B,G]2 F2 |[M:1/4] D2 |[M:3/4] DG B2 B2 | [GB][FA] [FA]2 [Ad]2 | F3 [DA] [^CG][G,CE] | %9
[M:2/4] [G,^CE]2 D2 |[M:1/4] D2 |[M:3/4] DF [FA]2 D2 | DG B2 G2 | [Gc]3 [GB] [EA][EG] | %14
[M:2/4] G2 F2 |[M:1/4] D2 |[M:3/4] [DG]A B2 B2 | AB c2 [DAd]2 | [DGB][CEA] [B,DG]2 [A,DF]2 | %19
[M:2/4] [B,DG]4 |] %20
V:2
 z2 z2 [G,B,]2 | [G,B,][G,B,D] [G,DG]2 [G,DG]2 | [D,D][D,D] [D,D]2 G,2 | C,3 C, C,C, | %4
[M:2/4] z2 A,2 |[M:1/4] [F,C]2 |[M:3/4] [G,B,][K:treble][G,B,D] [G,DG]2 [G,DG]2 | %7
 [D,D][D,D] [D,D]2 [F,D]2 | [A,D]3 [A,,F,] [A,,E,]A,, |[M:2/4] z2 F,2 |[M:1/4] [D,F,]2 | %11
[M:3/4] [D,F,][D,A,D] [D,D]2 [F,C]2 | [G,B,][K:treble][G,B,D] [G,DG]2[K:bass] [G,B,]2 | %13
 [E,C]3 [D,D] [C,G,][^C,A,] |[M:2/4] B,2 A,2 |[M:1/4] [C,F,]2 | %16
[M:3/4] [B,,G,][D,F,D][K:treble] [G,D]2 [G,DG]2 | [CE][B,E^G] [A,EA]2[K:bass] F,2 | G,C, D,2 D,2 | %19
[M:2/4] G,,4 |] %20
V:3
 x6 | x6 | x6 | x6 |[M:2/4] D4 |[M:1/4] x2 |[M:3/4] x6 | x6 | x6 |[M:2/4] x4 |[M:1/4] x2 | %11
[M:3/4] x6 | x6 | x6 |[M:2/4] x4 |[M:1/4] x2 |[M:3/4] x6 | x6 | x6 |[M:2/4] x4 |] %20
V:4
 x6 | x6 | x6 | x6 |[M:2/4] D,4 |[M:1/4] x2 |[M:3/4] x[K:treble] x5 | x6 | x6 |[M:2/4] D,4 | %10
[M:1/4] x2 |[M:3/4] x6 | x[K:treble] x3[K:bass] x2 | x6 |[M:2/4] [D,D]4 |[M:1/4] x2 | %16
[M:3/4] x2[K:treble] x4 | x4[K:bass] x2 | x6 |[M:2/4] x4 |] %20

